X:6
T:Anon052
O:November 2003
M:6/8
L:1/8
R:Jig
K:G
D | G2 G G2 G | G3 GFG | A2 B c2 d | cBA GFE |\
 D2 D E2 E | D3 GFG | AcB AGF | G3-G2 |]
